X:1
T:Title
%%score { ( 1 3 ) | ( 2 4 ) }
L:1/8
M:3/4
K:G
V:1 treble nm="Grand Piano"
V:3 treble 
V:2 treble 
V:4 treble 
V:1
 z2 z2[Q:1/4=110] D2 | z2 G2 B2 | [Bd]2 [GB]2 [Gd]2 | c2 [CA]2 [Fd]2 | B4 d2 | [Ge]2 [Ec]2 [Ge]2 | %6
 [Gd]2 [DB]2 [DG]2 |[M:2/4] [DFA]4 |[M:1/4] [B,D]2 |[M:3/4] [B,D]4 [DGB]2 | [Bd]2 [GB]2 [Gd]2 | %11
 c2 [CA]2 [Fd]2 | B4 B2 | [Ec]2 E2 [EA]2 | G2 A2 F2 |[M:2/4] G4 |] %16
V:2
 z2 z2 [G,B,]2 | [G,B,]4 [G,DG]2 | [G,D]4 [G,B,]2 | A,2 z2 [D,A,]2 | [G,D]4 [G,B,G]2 | %5
 [C,C]4 [C,C]2 | [G,B,]2 G,2 B,,2 |[M:2/4] D,4 |[M:1/4] G,2 |[M:3/4] z2[K:treble] G2 G,2 | %10
 [G,D]4 [G,B,]2 | A,2 z2 [D,A,]2 | [G,D]4 [G,D]2 | [C,G,]4 [C,C]2 | B,2 C2 [D,A,D]2 | %15
[M:2/4] [G,B,D]4 |] %16
V:3
 x6 | D4 z2 | x6 | F4 z2 | x6 | x6 | x6 |[M:2/4] x4 |[M:1/4] x2 |[M:3/4] x6 | x6 | F4 z2 | x6 | %13
 x6 | x6 |[M:2/4] x4 |] %16
V:4
 x6 | x6 | x6 | D,4 z2 | x6 | x6 | x6 |[M:2/4] x4 |[M:1/4] x2 |[M:3/4] G,4[K:treble] z2 | x6 | %11
 D,4 z2 | x6 | x6 | [D,D]4 z2 |[M:2/4] x4 |] %16

